X:1
T:Le bohémien (1864)
T:LE BOHÉMIEN
T:Clémence de Grandval
T:N°2. Pour TENOR Michel Carré
T:à Mr. J.FAURE de l'opéra
T:Creative Commons copyright waiver (CC0 1.0 Universal)
T:Creative Commons copyright waiver (CC0 1.0 Universal)
T:Creative Commons copyright waiver (CC0 1.0 Universal)
T:Creative Commons copyright waiver (CC0 1.0 Universal)
T:Creative Commons copyright waiver (CC0 1.0 Universal)
T:Creative Commons copyright waiver (CC0 1.0 Universal)
T:Creative Commons copyright waiver (CC0 1.0 Universal)
C:Clémence de Grandval (1828-1907)
Z:Michel Carré (1821-1872)
Z:Creative Commons copyright waiver (CC0 1.0 Universal)
%%score ( 1 2 ) { ( 3 5 ) | ( 4 6 ) }
L:1/8
Q:1/4=106
M:4/4
K:G
V:1 treble nm="CHANT"
V:2 treble 
V:3 treble nm="PIANO."
V:5 treble 
V:4 bass 
V:6 bass 
V:1
"^Allegro ma non troppo." z8 | z8 |"^CHANT" z!mf!"^marcato." E G A B ^c ^d e | =d B e B d G A B | %4
w: ||Gai bo- hé- mien sans feu ni|lieu, Je vis à la grâ- ce de|
 (F8 | B6) x2 | z E G A B ^c ^d e | =d B e B d G/ G/ A B | (A8 | D6) x2 | z G A B A G d B | %11
w: Dieu!|_|Li- bre, pieds nus, vê- tu de|toi- le, Sans sou- cis et con- tent de|peu,|_|Je me cou- che à la belle é-|
 c G A G[Q:1/4=100]"^rit: un poco." F B ^A ^c |!p![Q:1/4=106]"^a tempo." B4 z ^c c ^d | %13
w: toile Et pour ri- deaux j'ai le ciel|bleu! Et pour ri-|
 B3 B =G3 =c | B8- |"^cresc." B6 z2 ||[K:E]!f! e2 (3(cd e) B2 c2 | G3/2 B/ A3/2 G/ F2 E2 | %18
w: deaux j'ai le ciel|bleu!|_|Gai bo- * hé- mien er-|rant et so- li- tai- re,|
!f! e2 (3(cd e) B2 c2 | d3/2 B/ e3/2 c/ c2 B2 | %20
w: N'en- vi- * ons rien aux|ri- ches de la ter- re,|
[Q:1/4=110]"^animez un peu." (3B ^A c B2- (3B c =d (3e d c | (B4 c3) z | %22
w: La li- ber- té _ C'est le sou- ve- rain|bien! _|
"^cresc." (3c ^B ^d c2- (3c d e (3f e d | (c4 d4) |!f![Q:1/4=100]"^élargissez." e2 e3/2 d/ c4 | %25
w: La li- ber- té _ c'est le sou- ve- rain|bien! _|La li- ber- té, |
 f2 (3(fc e) d2 e B | (GA) B ^B c2!ff! (3c f e ||[M:2/4][Q:1/4=70]"^ad lib." (d4{e)} || %28
w: la li- * ber- té, C'est le|sou- * ve- rain bien, le sou- ve-|rain|
[M:4/4][Q:1/4=106]"^tempo." e2- e z z4 | z8 | z8 ||[K:G][Q:1/4=100]"^un peu plus lent." z8 | %32
w: bien! *||||
!p!"^doux." G2 G2 c2 c2 | B2 A G d4 |!<(! d2 d2 e2 e2!<)! | e2!>(! (3:2:2c2 B!>)! A4 | %36
w: Je me dé- sal-|tère aux ruis- seaux|Où les nei- ges|fon- dent leurs eaux,|
 A B c d c2 (3:2:2B2 G | A4 A2 F D | B2 B3/2 B/ B2 ^c2 | d4- d z"_cresc:" d2 | %40
w: Par- fois ma be- sace est nour-|ri- e De pain|frais et de bons mor-|ceaux, _ Je|
 =f2 (3:2:2d2 c _B2 c d |!f! (d2 _e3) c =A =F | _B4 B2 B3/2 B/ | _B6- B z || %44
w: porte, a- vec moi ma pa-|tri- e Com- me les|loups et les oi-|seaux! _|
[K:B]"^doux." B2 B3/2 B/ B2 (3F G =A | G6- G z | c2 c3/2 c/ c2 (3G A B | A6- A z | %48
w: Quand je ren- contre en mon che-|min _|Un pau- vre en- fant qui tend la|main, _|
 B B B3/2 c/ d2 c B | (e3 d) c4 | f2 e3/2 d/ d2 (3d c ^B | (c3 A) F4 | B2 (3:2:2B2 B c2 (3c A F | %53
w: A- vec lui gai- ment je par-|ta- * ge|Mon seul a- bri con- tre l'o-|ra- * ge|Et mon der- nier mor- ceau de|
 d z B2 B2 (fe) | d2 F2!p! c3 B | B4- B z B B/ B/ |"^cresc:" c4- c z c c/ c/ | d4- d z z2 | z8 || %59
w: pain, Et mon der- *|nier mor- ceau de|pain! _ Gai bo- hé-|mien _ Gai bo- hé-|mien _||
[K:G][Q:1/4=106]"^Tempo I°." z!mf! E"^marcato." G A B ^c ^d e | =d B e B d G A B | (F8 | B6- B) z | %63
w: Gai bo- hé- mien, sans feu ni|lieu, Je vis à la grâ- ce de|Dieu!|_ _|
 z E G A B ^c ^d e | =d B e B d G/ G/ A B | (A8 | D6-) D z | z G A B A G d B | %68
w: Li- bre, pieds nus, vê- tu de|toil- le, sans sou- cis et con- tent de|peu,|_ _|Je me cou- che à la belle é-|
 c G A G[Q:1/4=100]"^rit  un poco." F B ^A ^c |!p![Q:1/4=106]"^tempo." B4 z ^c c ^d | B3 B =G3 =c | %71
w: toile Et pour ri- deaux j'ai le ciel|bleu! Et pour ri-|deaux j'ai le ciel|
 B8- | B6 z2 ||[K:E]!f! e2 (3(cd) e B2 c2 | G3/2 B/ A3/2 G/!>(! F2 E2!>)! |!f! e2 (3(cd e) B2 c2 | %76
w: bleu!|_|Gai bo- * hé- mien er-|rant et so- li- tai- re,|N'en- vi- * ons rien aux|
 d3/2 B/ e3/2 c/ c2 B2 |[Q:1/4=110]"^animez un peu." (3B ^A c B2- (3B c =d (3e d c | (B4 c3) z | %79
w: ri- ches de la ter- re,|La li- ber- té, _ c'est le sou- ve- rain|bien! _|
"_cresc:" (3c ^B ^d c2- (3c d e (3f e d | (c4 d3) z |!f![Q:1/4=104]"^élargissez." e2 e3/2 d/ c4 | %82
w: La li- ber- té, _ c'est le sou- ve- rain|bien! _|La li- ber- té!|
 f2 (3(fc e) d2 e B | (GA) B ^B c2!ff! (3c f e |[Q:1/4=86]"^ad lib." !trill(!Td8({cde)} | %85
w: La- li- * ber- té, c'est le|sou- * ve- rain bien le sou- ve-|rain|
 e2-[Q:1/4=102] e z z2[Q:1/4=98] z2 | z8[Q:1/4=94] | z8 |] %88
w: bien! _|||
V:2
 x8 | x8 | x8 | x8 | x8 | x8 | x8 | x8 | x8 | x8 | x8 | x8 | x8 | x8 | x8 | x8 ||[K:E] x8 | x8 | %18
 x8 | x8 | x8 | x8 | x8 | x8 | x8 | x8 | x8 ||[M:2/4] x4 ||[M:4/4] x8 | x8 | x8 ||[K:G] x8 | x8 | %33
 x8 | x8 | x8 | x8 | x8 | x8 | x8 | x8 | x8 | x8 | x8 ||[K:B] x8 | x8 | x8 | x8 | x8 | x8 | x8 | %51
 x8 | x8 | x8 | x8 | x8 | x8 | x8 | x8 ||[K:G] x8 | x8 | x8 | x8 | x8 | x8 | x8 | x8 | x8 | x8 | %69
 x8 | x8 | x6"^cresc:" x2 | x8 ||[K:E] x8 | x8 | x8 | x8 | x8 | x8 | x8 | x8 | x8 | x8 | x8 | x8 | %85
 x x x6 | x8 | x8 |] %88
V:3
 z!p! [Bb]!<(![Bb][Bb] [Bb][Bb][AB][AB] | [FAB]!<)![FAB]^DF[K:bass] !>!C!f! (B,/C/B,/A,/G,/F,/) | %2
!mf! E,[K:treble][GB][GB][GB] [GB][GB][GB][GB] | [GB][GB][GB][GB] [GB][GB][GB][GB] | %4
 !>!F2!8va(! (6:4:6(f'/^g'/f'/^c'/^d'/e'/) (d'b)!8va)!!p! (6:4:6(f/^g/f/^c/^d/e/) | %5
 (^dB)[K:bass] (6:4:6(B,/C/B,/^A,/B,/C/) B,!<(![B,G][^A,F][=A,B,^D]!<)! | %6
 [G,B,E][K:treble][GB][GB][GB] [GB][GB][GB][GB] | [GB][GB][GB][GB] [GB][GB][GB][GB] | %8
 [^CGA]2!p!!8va(! (6:4:6a'/b'/a'/e'/f'/g'/ (f'd')!8va)! (6:4:6a/b/a/e/f/g/ | %9
 (fd) (6:4:6(D/E/D/^C/D/E/)!<(! D[DB][^CA][=CDF]!<)! | [B,DG][=FG][FG][FG] [FG][FG][FG][FG] | %11
 [EG][EG][EG][EG]!>(! [^DF][DF][EF][EF]!>)! | %12
 [^DF] z!8va(! (6:4:6(^d'/e'/d'/^c'/d'/b/ f'2-) f'!8va)! z | z2 (6:4:6(^d/e/d/^c/d/B/) =g2- g z | %14
 z2!8va(! (6:4:6(b/^c'/b/^a/b/c'/ e'^d')!8va)! (6:4:6(B/^c/B/^A/"_cresc."B/c/) | %15
 e^dB,^C (T^D4{CD)} ||[K:E]!f! E2 (3cde [EGB]2 [EGc]2 | G>B A>G!>(! ([DF]2!>)! E2) | %18
!f! [EGe]2 (3cde [EGB]2 [EGc]2 | [B,DGB]2 [EGB]2 [EF^A]2 [DFB]2 | %20
 [=DEG] z (3[EGB][EG^A][EGc] [EGB] z [E=A] z | %21
 z3/2 [=dg]/ [df]>[de] [ca] z[K:bass]!>(!"_." (([=G,=G]2!>)! | %22
 [F,F])) z[K:treble] (3[F^Ac][FA^B][FA^d] [FAc] z [F=B] z | %23
 z3/2 [da]/ [eg]>[ef] [db] z[K:bass]!>(! (([=A,=A]2!>)! | %24
!f! [G,G])) z[K:treble] (e>d) [EAc]2 ([Cc]>[B,B] | [A,A]2) (3(fce) [FBd]2 [EBe][DAB] | %26
 [EG][EA][EB][EG^B] [EAc] z!ff! [EFAc] z ||[M:2/4] [DFABd]4 || %28
[M:4/4] [EGBe]2 [EBe][DAB] [EG][EA][EB][EG^B] | [EAc][FGd] (3([EGe][=B=b][Aa]) [GBeg]2 (f>e) | %30
 [GBe]2 [egbe'] z z4 ||[K:G]!p! E2 (3(GFE)[K:bass] [CD]4 | %32
[K:treble]"^sosten." (3DEG (3Bde [FAcd]4 | (3DEG (3Bde [FAcd]4 | (3DEG!<(! (3(Bdf)!<)! [GBde]4 | %35
 (3([A,CE]GA)!>(! (3(ceg)!>)! [Acdf]4 | (3([A,C]DF) (3(cdb) (([cda]2 [Bdg])) z | %37
[I:staff +1] (3[G,A,][I:staff -1]^CE (3(GAf) (([GAe]2 [FAd])) z | %38
 (3([B,DE]GB) (3(deg) (([FAf]2 [GAe])) z | %39
[I:staff +1] (3([F,A,][I:staff -1]DF) (3(Adf) ([F-Ae]2 [FAd]) z | %40
[I:staff +1] (3([=F,_B,][I:staff -1]D=F) (3(_Bd=f) [Bd_b] z [DB] z | %41
[I:staff +1] (3([G,_B,][I:staff -1]_EG) (3(_B_eg) [d_b] z [_E_Fc] z | %42
[I:staff +1] (3([G,_B,][I:staff -1]_EG) (3(_B_eg) ([A-Bg]2 [AB=f]) z | %43
 [G_B_e] z (_b2!>(! _e'2!>)! e2) ||[K:B] =b2- b z[K:bass] !>!B, z z2 | %45
 !>!E,2[K:treble] (b2 e'2 e2) | c'2- c' z[K:bass] !>!C2 z2 | F,2[K:treble]!<(! (c'2 f'2!<)! f2) | %48
 (3(B,DF (3Bdg) [Bf]4 | (3([B,C]EG) (3(Beg) [^Aef]4 | (3([B,D]FB) (3(dfc') [^Bd=a]4 | %51
 (3([EF]^Ac) (3(efd') [efc'] z [CFA] z | [FB]2 [DF]2 [A,CEF]4 | %53
 [B,DF] z [B,DB]2 [B,FB]2!>(! [C=GB]2!>)! | (([DFB]4!p! G2 A2 | %55
 [DB])) z!8va(! (6:4:6(d'/e'/d'/b/c'/e'/ d') z z2 | %56
"_cresc." z2 (6:4:6(e'/f'/e'/c'/d'/f'/ e')!8va)! z z2 | z [Bb][Bb][Bb] [Bb][Bb][=AB][AB] | %58
 [F=AB][FAB]DF[K:bass] (=C2 (6:4:6B,/C/B,/=A,/=G,/F,/) || %59
[K:G]!mf! E,[K:treble][GB][GB][GB] [GB][GB][GB][GB] | [GB][GB][GB][GB] [GB][GB][GB][GB] | %61
 !>!F2!8va(! (6:4:6(f'/^g'/f'/^c'/^d'/e'/ d'b)!8va)! (6:4:6(f/^g/f/^c/^d/e/) | %62
 (^dB)[K:bass] (6:4:6(B,/=C/B,/^A,/B,/C/) B,[B,G][^A,F][=A,B,^D] | %63
 [G,B,E][K:treble][GB][GB][GB] [GB][GB][GB][GB] | [GB][GB][GB][GB] [GB][GB][GB][GB] | %65
 !>![^CGA]2!8va(! (6:4:6(a'/b'/a'/e'/f'/g'/) (f'd')!8va)! (6:4:6(a/b/a/e/f/g/) | %66
 (fd) (6:4:6(D/E/D/^C/D/E/) D[DB][^CA][=CDF] | [B,DG][=FG][FG][FG] [FG][FG][FG][FG] | %68
 [EG][EG][EG][EG] [^DF][DF][EF][EF] | %69
!p! [^DF] z!8va(! (6:4:6(^d'/e'/d'/^c'/d'/b/) f'2- f'!8va)! z | %70
 z2 (6:4:6(^d/e/d/^c/d/B/) =g2- g z | %71
 z2!8va(! (6:4:6(b/^c'/b/^a/b/c'/ (e'^d'))!8va)!"^cresc:" (6:4:6(B/^c/B/^A/B/c/) | %72
 (!>!e^d)B,^C (T^D4{CD)} ||[K:E]!f! E2 (3cde [EGB]2 [EGc]2 | G>B A>G!>(! ([DF]2 E2)!>)! | %75
!f! [EGe]2 (3cde [EGB]2 [EGc]2 | [B,DGB]2 [EGB]2 [EF^A]2 [DFB]2 | %77
 [=DEG] z (3[EGB][EG^A][EGc] [EGB] z [E=A] z | z3/2 [=dg]/ [df]>[de] [ca] z[K:bass] (([=G,=G]2 | %79
"_cresc:" [F,F])) z[K:treble] (3[F^Ac][FA^B][FAd] [FAc] z [F=B] z | %80
 z3/2 [e^a]/ [eg]>[ef] [db] z[K:bass] (([=A,=A]2 | %81
!f! [G,G])) z[K:treble] (e>d) [EAc]2 ([Cc]>[B,B] | [A,A]2) (3(fce) [FBd]2 [EBe][DAB] | %83
 [EG][EA][EB][EG^B] [EAc] z!ff! [EFAc] z | [DFABd]4 z4 | [EGBe]2 [EBe][EAB] [EG][EA][EB][EG^B] | %86
 [EAc][FGd] (3[EGe][=B=b][Aa] [GBeg]2 (f>e) | [GBe]2 [egbe'] z z4 |] %88
V:4
 [B,,,B,,][K:treble]B^A=A ^G=GF^E | =E^D[K:bass][^D,,^D,][F,,F,] !>![C,,C,]2 (([B,,,B,,]2 | %2
 [E,,,E,,]))"^marcato."E,G,A, B,^C^DE | =DB,EB, DG,A,B, | %4
 [F,,F,]2[K:treble] [F-^Ae]2 [FB^d] z[K:bass] ([F,^A,E]2 | %5
 [B,^D]) z (6:4:6(B,,/C,/B,,/^A,,/B,,/C,/) [B,,,B,,][B,,,B,,][B,,,B,,][B,,,B,,] | %6
 [E,,,E,,]E,G,A, B,^C^DE | =DB,EB, DG,A,B, | %8
 [A,,,A,,]2[K:treble] [A-^cg]2 [Adf] z[K:bass] ([A,^CG]2 | %9
 [DF]) z (6:4:6(D,/E,/D,/^C,/D,/E,/) [D,,D,][D,,D,][D,,D,][D,,D,] | [G,,,G,,]G,A,B, A,G,DB, | %11
 CG,A,"^colla voce."G, F,B,^A,^C | B, z ([B,^D]2 [F,^A,E]2-) [F,A,E] z | %13
 [B,,,B,,]2 ([B,^D]2 [E,=G,=CE]2-) [E,G,CE]2 | %14
 [B,,,B,,]2[K:treble] [B^da][Bea] [Bfa]2[K:bass] [B,^DA][B,EA] | %15
 [B,FA]2 [B,,,B,,][^C,,^C,] [^D,,^D,]4 ||[K:E] [E,,E,]2 [A,C]2 [E,B,]2 [C,C]2 | %17
 [E,B,]2 [A,,A,]2 ([B,,A,]2 [E,G,]2) | [E,,E,]2 [A,C]2 [E,B,]2 [C,C]2 | %19
 [G,,G,]2 [C,,C,]2 [F,,F,]2 [B,,,B,,]2 | [E,,E,] z (3[E,=D][E,D][E,D] [E,D] z [E,C] z | %21
 [E,,E,]>[K:treble][EB] [EA]>[EG] [A,EA] z[K:bass] (([=G,,,=G,,]2 | %22
 [F,,,F,,])) z (3[F,E][F,E][F,E] [F,E] z [F,D] z | %23
[K:bass] [F,,F,]>[K:treble][Fc] [FB]>[F^A] [B,FB] z[K:bass] (([=A,,,=A,,]2 | %24
"^colla voce." [G,,,G,,])) z [G,B,]2 [A,C]2 ([C,,C,]>[B,,,B,,] | %25
 [A,,,A,,]2) [A,C]2 [A,B,]2 [G,B,][F,B,] | [E,B,][F,B,][G,B,][E,=D] [A,C] z [F,,F,] z || %27
[M:2/4]"^colla voce." [B,,,B,,]4 || %28
[M:4/4]"^tempo." [E,,,E,,]2 [G,B,][F,B,] [E,B,][F,B,][G,B,][E,=D] | %29
 [A,C][G,^B,][C,C][F,,F,] [=B,,=B,]2 [B,D]2 | [E,E]2 [E,,E,] z z4 ||[K:G] [G,B,]4 D,4 | %32
 [G,B,]2 x2 [G,D] z [D,,D,] z | [G,B,]2 x z [G,D] z [D,,D,] z | [G,B,]2 x z [G,E] z [D,,D,] z | %35
 [G,,,G,,]2- [G,,,G,,] z [A,CDF] z [D,,D,] z | [D,,,D,,]2- [D,,,D,,] z (([CD-A]2 [B,DG])) z | %37
 [D,,D,]2- [D,,D,] z (([G,A,E]2 [F,A,D])) z | [G,,E,]2- [G,,E,] z ([A,-D]2 [A,^C]) z | %39
 [D,,D,]2- [D,,D,] z [A,D]2- [A,D] z | [_B,,,_B,,]2- [B,,,B,,] z [_B,=F] z [_A,,=F,] z | %41
 [G,,,G,,]2- [G,,,G,,] z [G,_B,_E] z [_A,,=F,] z | [_B,,,_B,,]2- [B,,,B,,] z [_B,D]2- [B,D] z | %43
 [_E,,_E,] z[K:treble] ([_EG]/4_B/4[EG]/4B/4[EG]/4B/4[EG]/4B/4) (!///-![EG]2 B2) || %44
[K:B]"^doux." (!///-![DF=A]2 B2) (!///-![DFA]2 B2) | (!///-![EG]2 B2) (!///-![EG]2 B2) | %46
 (!///-![EGB]2 c2) (!///-![EGB]2 c2) | %47
 (!///-![EF^A]2 c2) ([DF]/4A/4[DF]/4A/4[DF]/4A/4[DF]/4A/4) ([CEF]/4A/4[CEF]/4A/4[CEF]/4A/4[CEF]/4A/4) | %48
 [DBd]2- [DBd] z [db] z [Dd] z |[K:bass] [F,,,F,,]2- [F,,,F,,] z [F,C] z [F,,F,] z | %50
 [F,,,F,,]2- [F,,,F,,] z [F,=A,D] z [F,,F,] z | [F,,,F,,]2- [F,,,F,,] z [F,^A,E] z E, z | %52
 (3(D,F,C (3B,A,G,) (3:2:2(F,2 E, (3:2:2D,2 C,) | B,, z (G,2 D,2 E,2) | F,4 F,4 | %55
 [B,,,B,,] z [B,DF]2 [B,DF] z z2 | [B,,,B,,] z [^A,E=G]2 [A,EG] z z2 | %57
 [B,,,B,,][K:treble]B^A=A G=GF^E | =ED[K:bass][D,,D,][F,,F,] !>![=C,,=C,]2 ((!>![B,,,B,,]2 || %59
[K:G] [E,,,E,,]))"^marcato."E,G,A, B,^C^DE | =DB,EB, DG,A,B, | %61
 [F,,F,]2[K:treble] [F-^Ae]2 [FB^d] z[K:bass] (([F,^A,E]2 | %62
 [B,^D])) z (6:4:6(B,,/=C,/B,,/^A,,/B,,/C,/) [B,,,B,,][B,,,B,,][B,,,B,,][B,,,B,,] | %63
 [E,,,E,,]E,G,A, B,^C^DE | =DB,EB, DG,A,B, | %65
 [A,,,A,,]2[K:treble] ([A-^cg]2 [Adf]) z[K:bass] (([A,^CG]2 | %66
 [DF])) z (6:4:6(D,/E,/D,/^C,/D,/E,/) [D,,D,][D,,D,][D,,D,][D,,D,] | [G,,,G,,]G,A,B, A,G,DB, | %68
 CG,A,G, F,"^colla voce."B,^A,^C | B, z [B,^D]2 [F,^A,E]2- [F,A,E] z | %70
 [B,,,B,,]2 [B,^D]2 [E,=G,=CE]2- [E,G,CE]2 | %71
 [B,,,B,,]2[K:treble] [B^da][Bea] !>![Bfa] z[K:bass] [B,^DA][B,EA] | %72
 !>![B,FA]2 [B,,,B,,][^C,,^C,] [^D,,^D,]4 ||[K:E] [E,,E,]2 [A,C]2 [E,B,]2 [C,C]2 | %74
 [E,B,]2 [A,,A,]2 [B,,A,]2 [E,G,]2 | [E,,E,]2 [A,C]2 [E,B,]2 [C,C]2 | %76
 [G,,G,]2 [C,,C,]2 [F,,F,]2 [B,,,B,,]2 | [E,,E,] z (3[E,=D][E,D][E,D] [E,D] z [E,C] z | %78
 [E,,E,]>[K:treble][EB] [EA]>[EG] [A,EA] z[K:bass] (([=G,,,=G,,]2 | %79
 [F,,,F,,])) z (3[F,E][F,E][F,E] [F,E] z [F,D] z | %80
 [F,,F,]>[K:treble][Fc] [FB]>[F^A] [B,FB] z[K:bass] ((([=A,,,=A,,]2 | %81
 [G,,,G,,]))) z [G,B,]2 [A,C]2 ([C,,C,]>[B,,,B,,] | [A,,,A,,]2) [A,C]2 [A,B,]2 [G,B,][F,B,] | %83
 [E,B,][F,B,][G,B,][E,=D] [A,C] z [F,,F,] z |"^colla voce." [B,,,B,,]4 z4 | %85
 [E,,,E,,]2 [G,B,][F,B,] [E,B,][F,B,][G,B,][E,=D] | [A,C][G,^B,] [C,C][F,,F,] [=B,,=B,]2 [B,D]2 | %87
 [E,E]2 [E,,E,] z z4 |] %88
V:5
 x8 | x4[K:bass] x4 | x[K:treble] x7 | x8 | x2!8va(! x4!8va)! x2 | x2[K:bass] x6 | x[K:treble] x7 | %7
 x8 | x2!8va(! x4!8va)! x2 | x8 | x8 | x8 | x2!8va(! x5!8va)! x | x8 | x2!8va(! x4!8va)! x2 | x8 || %16
[K:E] x2 [EA]2 z4 | E2 [CE]2 x2[I:staff +1] B,2 | x2[I:staff -1] [EA]2 x4 | x8 | x8 | %21
 x6[K:bass] x2 | x2[K:treble] x6 | x6[K:bass] x2 | x2[K:treble] [EB]2 x4 | x2 F2 x4 | x8 || %27
[M:2/4] x4 ||[M:4/4] x8 | x6 [AB]2 | x8 ||[K:G] x4[K:bass] (G,2 E,2) |[K:treble] x8 | x8 | x8 | %35
 x8 | x8 | x8 | x8 | x8 | x8 | x8 | x8 | x8 ||[K:B] x4[K:bass] x4 | x2[K:treble] x6 | %46
 x4[K:bass] x4 | x2[K:treble] x6 | x8 | x8 | x8 | x8 | B, z x6 | x8 | x4 E4 | x2!8va(! x6 | %56
 x5!8va)! x3 | x8 | x4[K:bass] x4 ||[K:G] x[K:treble] x7 | x8 | x2!8va(! x4!8va)! x2 | %62
 x2[K:bass] x6 | x[K:treble] x7 | x8 | x2!8va(! x4!8va)! x2 | x8 | x8 | x8 | x2!8va(! x5!8va)! x | %70
 x8 | x2!8va(! x4!8va)! x2 | x8 ||[K:E] x2 [EA]2 x4 | E2 [CE]2 x2[I:staff +1] B,2 | %75
 x2[I:staff -1] [EA]2 x4 | x8 | x8 | x6[K:bass] x2 | x2[K:treble] x6 | x6[K:bass] x2 | %81
 x2[K:treble] [EB]2 x4 | x2 F2 x4 | x8 | x8 | x8 | x6 [AB]2 | x8 |] %88
V:6
 x[K:treble] x7 | x2[K:bass] x6 | x8 | x8 | x2[K:treble] x4[K:bass] x2 | x8 | x8 | x8 | %8
 x2[K:treble] x4[K:bass] x2 | x8 | x8 | x8 | x8 | x8 | x2[K:treble] x4[K:bass] x2 | x8 ||[K:E] x8 | %17
 x8 | x8 | x8 | x8 | x3/2[K:treble] x9/2[K:bass] x2 | x8 |[K:bass] x3/2[K:treble] x9/2[K:bass] x2 | %24
 x8 | x8 | x8 ||[M:2/4] x4 ||[M:4/4] x8 | x8 | x8 ||[K:G] E,4 A,,4 | [G,,D,]4 x4 | %33
 [G,,,G,,]2- [G,,,G,,] x5 | [G,,,G,,]2- [G,,,G,,] x5 | x8 | x8 | x8 | x8 | x8 | x8 | x8 | x8 | %43
 x2[K:treble] x6 ||[K:B] x8 | x8 | x8 | x8 | x8 |[K:bass] x8 | x8 | x8 | x8 | x8 | x8 | x8 | x8 | %57
 x[K:treble] x7 | x2[K:bass] x6 ||[K:G] x8 | x8 | x2[K:treble] x4[K:bass] x2 | x8 | x8 | x8 | %65
 x2[K:treble] x4[K:bass] x2 | x8 | x8 | x8 | x8 | x8 | x2[K:treble] x4[K:bass] x2 | x8 ||[K:E] x8 | %74
 x8 | x8 | x8 | x8 | x3/2[K:treble] x9/2[K:bass] x2 | x8 | x3/2[K:treble] x9/2[K:bass] x2 | x8 | %82
 x8 | x8 | x8 | x8 | x8 | x8 |] %88

